svg/work-doodle-kristaps-s.svg

<svg width="273" height="360" viewBox="0 0 273 360" fill="none" xmlns="http://www.w3.org/2000/svg">
<path d="M116.74 45.6029C122.211 53.201 132.077 52.8029 140.54 52.8029C148.015 52.8029 156.495 55.0065 163.94 53.6529C166.067 53.2661 169.565 51.4013 171.64 50.3029C173.96 49.0749 172.518 40.4078 172.09 38.3529C171.022 33.2248 171.64 27.432 171.64 22.2029C171.64 19.9639 172.801 14.742 169.84 17.7029C167.939 19.6044 157.113 35.5024 154.14 34.6529C153.362 34.4306 151.898 29.4152 151.34 28.5029C149.345 25.2382 147.702 22.1261 145.99 18.7029C145.304 17.3301 144.504 15.9402 143.74 14.6029C142.974 13.2626 142.193 18.9748 141.94 19.7029C140.516 23.7974 141.581 33.2322 137.89 36.1029C134.727 38.5635 131.135 29.7563 130.04 27.9029C129.616 27.1841 123.928 16.9153 123.49 17.3529C121.581 19.2618 123.04 28.6048 123.04 31.4029C123.04 35.6756 122.595 42.0322 120.79 46.0029C119.755 48.2802 119.937 52.493 118.54 48.3029" stroke="#15CE79" stroke-width="2.7" stroke-linecap="round"/>
<path d="M115.84 141.453C114.908 143.725 113.815 146.373 113.815 148.89C113.815 149.474 113.568 150.759 114.052 151.203C114.615 151.719 114.715 150.777 114.715 150.44C114.715 149.121 114.686 147.911 114.99 146.628C115.355 145.087 114.973 143.965 115.84 142.578" stroke="#15CE79" stroke-width="2.7" stroke-linecap="round"/>
<path d="M188.291 137.628C190.314 136.659 192.694 135.349 195.041 135.928C196.477 136.282 198 137.258 199.291 137.965C201.627 139.245 201.566 142.068 201.566 144.478C201.566 147.74 199.38 149.662 196.366 150.34C195.318 150.576 194.196 150.768 193.116 150.665C192.369 150.594 191.769 150.228 190.991 150.228" stroke="#15CE79" stroke-width="2.7" stroke-linecap="round"/>
<path d="M191.215 141.903C193.521 141.128 195.808 140.319 198.09 139.478C198.504 139.325 198.876 139.203 199.315 139.203" stroke="#15CE79" stroke-width="2.7" stroke-linecap="round"/>
<path d="M195.041 145.728C196.836 144.961 199.072 143.478 201.116 143.478" stroke="#15CE79" stroke-width="2.7" stroke-linecap="round"/>
<path d="M114.49 142.803C113.816 144.152 106.568 152.253 112.015 152.253C114.327 152.253 114.94 152.229 114.94 149.778C114.94 149.078 113.76 148.684 113.24 149.203C112.974 149.47 112.957 151.437 112.24 150.003" stroke="#15CE79" stroke-width="2.7" stroke-linecap="round"/>
</svg>

<svg xmlns="http://www.w3.org/2000/svg" width="273" height="360" fill="none"><path stroke="#15CE79" stroke-linecap="round" stroke-width="2.7" d="M116.74 45.603c5.471 7.598 15.337 7.2 23.8 7.2 7.475 0 15.955 2.204 23.4.85 2.127-.387 5.625-2.252 7.7-3.35 2.32-1.228.878-9.895.45-11.95-1.068-5.128-.45-10.921-.45-16.15 0-2.24 1.161-7.461-1.8-4.5-1.901 1.901-12.727 17.8-15.7 16.95-.778-.222-2.242-5.238-2.8-6.15-1.995-3.265-3.638-6.377-5.35-9.8-.686-1.373-1.486-2.763-2.25-4.1-.766-1.34-1.547 4.372-1.8 5.1-1.424 4.094-.359 13.53-4.05 16.4-3.163 2.46-6.755-6.347-7.85-8.2-.424-.719-6.112-10.988-6.55-10.55-1.909 1.909-.45 11.252-.45 14.05 0 4.273-.445 10.63-2.25 14.6-1.035 2.277-.853 6.49-2.25 2.3m-2.7 93.15c-.932 2.272-2.025 4.92-2.025 7.437 0 .584-.247 1.869.237 2.313.563.516.663-.426.663-.763 0-1.319-.029-2.529.275-3.812.365-1.541-.017-2.663.85-4.05m72.451-4.95c2.023-.969 4.403-2.279 6.75-1.7 1.436.354 2.959 1.33 4.25 2.037 2.336 1.28 2.275 4.103 2.275 6.513 0 3.262-2.186 5.184-5.2 5.862-1.048.236-2.17.428-3.25.325-.747-.071-1.347-.437-2.125-.437"/><path stroke="#15CE79" stroke-linecap="round" stroke-width="2.7" d="M191.215 141.903a252.28 252.28 0 0 0 6.875-2.425c.414-.153.786-.275 1.225-.275m-4.274 6.525c1.795-.767 4.031-2.25 6.075-2.25m-86.626-.675c-.674 1.349-7.922 9.45-2.475 9.45 2.312 0 2.925-.024 2.925-2.475 0-.7-1.18-1.094-1.7-.575-.266.267-.283 2.234-1 .8"/></svg>
